X: 187
T: the Skylark
R: air
%S: s:2 b:16(8+8)
B: O'Neill's 1850 #187
O: F.O'Neill
Z: 1997 henrik.norbeck@mailbox.swipnet.se
Q: "Tenderly"
M: 3/4
L: 1/8
K: G
  (BA) | G>F (FG) (EC) | D4 (3DEF | G3 .A(Bc) | A2 d2 |\
|  dB  | G>F  FG   EC | D4 (3DEF | GB E2 AF | G4 |]
|| DD  | (G3 F) (G/A/B/c/) | d4 e>d | dB GA (3Bdc | B2 A2 |\
|  dB  | G>F  FG   EC | D4 (3DEF | GB E2 AF | G4 |]
